X: 22
M:3/4
L:1/8
K:G
e2e2g2 | e2e2g2 | Te4 d2 | G3 ABc | d2e2g2 | d2e2g2 |
edcBAG | c2 dcBA | B2 cBAG | A2B2d2 | Te4 d2 ::
g2G2B2 | g2G2B2 | g2G2g2 | edcBAG | a2A2B2 |
a2A2B2 | a2A2a2 | Te4d2 | g2 G2 B2 | g2 G2 B2 |g2 G2 g2 |
edcBAG | c2 dcBA | B2 cBAG | A2B2 d2 | Te4 d2 :|


